!!!!SEGMENT: pl-cz--i-155--003-003_anonim-partita-es-menuetto.krn
!!!id: 18xx:2504
!!!COM: Anonim
!!!OTL: Partita Es - Menuetto
!!!PDT:
!!!SMS-siglum: PL-CZ
!!!SMS-shelfmark: I-155
!!!NIFC-rismID: 1001012510
!!!URL-scan: http://repozytorium.nifc.pl/skany/pl-cz-nut--i-155
!!!ONB-nifc: UWAGA: Parthia 3 (003), części: 1. Adagio, 2. Allegro, 3. Menuetto, 4. Poloneser, 5. Finale. Uwaga: 5 partii
!!!SMS-variant:
!!!SMS-altvar:
**kern	**kern	**kern	**kern	**kern
*part5	*part4	*part3	*part2	*part1
*staff5	*staff4	*staff3	*staff2	*staff1
*I"Corno Secondo	*I"Corno Primo.	*I"Fagotto	*I"Clarinetto Secondo	*I"Clarinetto Primo
*I'cor 2 in E|b	*I'cor 1 in E|b	*I'fag	*I'cl 2	*I'cl 1
*>[A,A,B,B,C,C,D,E,A,A,B,B]	*>[A,A,B,B,C,C,D,E,A,A,B,B]	*>[A,A,B,B,C,C,D,E,A,A,B,B]	*>[A,A,B,B,C,C,D,E,A,A,B,B]	*>[A,A,B,B,C,C,D,E,A,A,B,B]
*>A	*>A	*>A	*>A	*>A
*clefG2	*clefG2	*clefF4	*clefG2	*clefG2
*ITrd5c9	*ITrd5c9	*	*ITrd1c2	*ITrd1c2
*k[b-e-a-]	*k[b-e-a-]	*k[b-e-a-]	*k[b-e-a-]	*k[b-e-a-]
*M3/4	*M3/4	*M3/4	*M3/4	*M3/4
*all\right	*all\right	*all\right	*all\right	*all\right
!	!	!LO:TX:a:t=P:problem:znaki	!	!
!	!	!LO:TX:a:t=P:problem:omyłkowo wpisany klucz F3	!	!
4B-/	4B-/	4r	4b-\	4b-\
=1	=1	=1	=1	=1
4G/	4e-\	8r	4g/	4ee-\
.	.	8e-\L	.	.
4G/	4e-\	8B-\	4g/	4ee-\
.	.	8e-\	.	.
4e-\	4g\	8G\	4ee-\	4gg\
.	.	8B-\J	.	.
=2	=2	=2	=2	=2
4.g\	4.b-\	8E-\L	4.gg\	4.bb-\
.	.	8G\J	.	.
.	.	4B-\	.	.
8f\	8a-\	.	8ff\	8aa-\
4e-\	4g\	4e-\	4ee-\	4gg\
=3	=3	=3	=3	=3
4e-\	4g\	4B-\	4b-\	4gg\
4G/	4e-\	4r	4g\	4ee-\
4B-/	4f\	4BB-/	4b-\	4ff\
=4	=4	=4	=4	=4
4e-\	4g\	4E-\	4ee-\	4gg\
4E-/	4e-\	4EE-/	4g/	4ee-\
4E-/	4e-\	4r	4r	4r
=5	=5	=5	=5	=5
4B-/	4f\	4BB-/	4dd\	4ff\
4r	4r	4D/	4dd\	4ff\
4B-/	4f\	4F/	4dd\	4ff\
!	!	!	!	!LO:LB:g=original
=6	=6	=6	=6	=6
*2\right	*2\right	*	*	*
2f\	2f\	4B-\	8dd\L	8ff\L
.	.	.	8cc\	8ee-\
.	.	4BB-/	8cc\	8ee-\
.	.	.	8b-\J	8dd\J
4r	4r	4r	4b-\	4dd\
!	!	!LO:LB:g=original	!LO:LB:g=original	!
=7	=7	=7	=7	=7
!	!	!LO:TX:t=P:problem:mixed beam	!	!
4f\	4f\	8BB-/L	4b-\	4dd\
.	.	8F\J	.	.
4r	4r	4r	8dd\L	8ff\L
.	.	.	8cc\	8ee-\
4e-\	4f\	4FF/	8b-\	8dd\
.	.	.	8f\J	8cc\J
!	!LO:LB:g=original	!	!	!
=8	=8	=8	=8	=8
!LO:SIC:v:s=2g	!	!	!	!
2d\	2f\	4BB-/	4e-/	4cc\
!	!	!	!	!LO:TX:b:t=8
.	.	4BBB-/	4d/	4b-\
!LO:LB:g=original	!	!	!	!
=:|!|:	=:|!|:	=:|!|:	=:|!|:	=:|!|:
*>B	*>B	*>B	*>B	*>B
4r	4r	4r	4r	4b-\
=9	=9	=9	=9	=9
*	*	*tremolo	*tremolo	*
*	*	*2\right	*	*
2.B-/	2.f\	8B-\L	8d/L	8aa-\L
.	.	8d\	8f/	8bb-\
.	.	8B-\	8d/	8aa-\
.	.	8d\	8f/	8gg\J
.	.	8B-\	8d/	4ff\
.	.	8d\J	8f/J	.
=10	=10	=10	=10	=10
*	*	*	*	*2\right
2.e-\	2.g\	8B-\L	8e-/L	2gg\
.	.	8e-\	8f/	.
.	.	8B-\	8e-/	.
.	.	8e-\	8f/	.
.	.	8B-\	8e-/	4ee-\
.	.	8e-\J	8f/J	.
=11	=11	=11	=11	=11
2.B-/	2.f\	8B-\L	8f/L	8ee-\L
.	.	8f\	8a-/	8dd\
.	.	8B-\	8f/	8cc\
.	.	8f\	8a-/	8b-\
.	.	8B-\	8f/	8cc\
.	.	8f\J	8a-/J	8dd\J
!	!	!	!	!LO:LB:g=original
=12	=12	=12	=12	=12
2.G/	2.e-\	8B-\L	8e-/L	4ee-\
.	.	8e-\	8g/	.
.	.	8B-\	8e-/	4gg\
.	.	8e-\	8g/	.
.	.	8B-\	8e-/	4bb-\
.	.	8e-\J	8g/J	.
=13	=13	=13	=13	=13
2.B-/	2.f\	8B-\L	8d/L	8aa-\L
.	.	8d\	8f/	8bb-\
.	.	8B-\	8d/	8aa-\
.	.	8d\	8f/	8gg\J
.	.	8B-\	8d/	4ff\
.	.	8d\J	8f/J	.
=14	=14	=14	=14	=14
2.e-\	2.g\	8B-\L	8e-/L	2gg\
.	.	8e-\	8g/	.
.	.	8B-\	8e-/	.
.	.	8e-\	8g/	.
.	.	8B-\	8e-/	4ee-\
.	.	8e-\J	8g/J	.
!	!	!	!LO:LB:g=original	!
=15	=15	=15	=15	=15
4f\	4f\	8B-\L	8d/L	4ee-\
.	.	8d\	8f/	.
4r	4r	8B-\	8d/	8dd\L
.	.	8d\	8f/	8cc\
4f\	4f\	8B-\	8d/	8b-\
.	.	8d\J	8f/J	8a\J
*	*	*Xtremolo	*Xtremolo	*
=16	=16	=16	=16	=16
4B-/	2f\	4B-\	8e-/L	4b-\
.	.	.	8f/J	.
4r	.	4BB-/	4d/	4r
4B-/	4r	4r	4r	4b-\
!	!	!LO:LB:g=original	!	!
=17	=17	=17	=17	=17
4G/	4e-\	8r	4g/	4ee-\
.	.	8e-\L	.	.
4G/	4e-\	8B-\	4g/	4ee-\
.	.	8e-\	.	.
4G/	4e-\	8G\	4ee-\	4gg\
.	.	8B-\J	.	.
=18	=18	=18	=18	=18
4.e-\	4.g\	8r	4.gg\	4.bb-\
.	.	8E-\L	.	.
.	.	8G\	.	.
8B-/	8f\	8B-\J	8ff\	8aa-\
4G/	4e-\	4e-\	4ee-\	4gg\
!	!	!	!	!LO:LB:g=original
=19	=19	=19	=19	=19
4B-/	4f\	4B-\	4b-\	4ff\
4G/	4e-\	4r	4g\	4ee-\
4B-/	4f\	4BB-/	4b-\	4ff\
!LO:LB:g=original	!LO:LB:g=original	!	!	!
=20	=20	=20	=20	=20
4e-\	4g\	4E-\	4ee-\	4gg\
4G/	4e-\	4EE-/	4g/	4ee-\
4E-/	4e-\	4r	4r	4r
=21	=21	=21	=21	=21
4e-\	4g\	4E-\	4gg\	4bb-\
4e-\	4g\	4G\	4gg\	4bb-\
4e-\	4g\	4B-\	4gg\	4bb-\
=22	=22	=22	=22	=22
4e-\	4g\	4e-\	8gg\L	8bb-\L
.	.	.	8ff\	8aa-\
4r	4r	4E-\	8ff\	8aa-\
.	.	.	8ee-\J	8gg\J
4G/	4e-\	4r	4ee-\	4gg\
=23	=23	=23	=23	=23
4e-\	4g\	4E-\	4ee-\	4gg\
4r	4r	4B-\	8gg\L	8bb-\L
.	.	.	8ff\	8aa-\
4B-/	4f\	4BB-/	8ee-\	8gg\
.	.	.	8b-\J	8ff\J
=	=	=	=	=
!LO:TX:b:t=16	!LO:TX:b:t=16	!	!	!
2G/	2e-\	4E-\	4a-/	4ff\
!	!	!	!LO:TX:a:t=P:problem:brak podwójnej repetycji	!LO:TX:a:t=P:problem:brak podwójnej repetycji
!	!	!LO:TX:b:t=16	!LO:TX:b:t=16	!LO:TX:b:t=16
.	.	4EE-/	4g/	4ee-\
!	!	!	!LO:LB:g=original	!LO:LB:g=original
=24:|!|:	=24:|!|:	=24:|!|:	=24:|!|:	=24:|!|:
!!!OMD: Trio
*>C	*>C	*>C	*>C	*>C
*k[b-e-a-]	*k[b-e-a-]	*	*k[b-e-a-]	*k[b-e-a-]
*M3/4	*M3/4	*	*M3/4	*M3/4
4r	4r	4r	4B-/	4b-\
!	!	!LO:LB:g=original	!	!
=25	=25	=25	=25	=25
4r	4r	4E-\	8B-/L	8b-\L
.	.	.	8g/	8gg\
4G/	4e-\	4G\	8f/	(8ff\
.	.	.	8e-/	8ee-\
4G/	4e-\	4E-\	8d/	8dd\
.	.	.	8e-/J	8ee-\J)
=26	=26	=26	=26	=26
4r	4r	4F\	8B-/L	8b-\L
.	.	.	8a-/	8aa-\
4B-/	4f\	4D\	8g/	(8gg\
.	.	.	8f/	8ff\
4B-/	4f\	4BB-/	8eX/	8eeX\
.	.	.	8f/J	8ff\J)
=27	=27	=27	=27	=27
!	!	!	!LO:TX:t=P:problem:mixed beam	!
4r	4r	4E-\	8B-/L	8b-\L
.	.	.	8b-\	8bb-\
4G/	4e-\	4G\	8a-\	(8aa-\
.	.	.	8g\	8gg\
4G/	4e-\	4E-\	8f\	8ff\
.	.	.	8e-\J	8ee-X\J)
!LO:LB:g=original	!LO:LB:g=original	!	!	!LO:LB:g=original
=28	=28	=28	=28	=28
4B-/	4f\	4B-\	8g/L	8gg\L
.	.	.	8f/	8ff\
4B-/	4f\	4BB-/	8e-/	8ee-\
.	.	.	8d/	8dd\
4r	4r	4r	8c/	8cc\
.	.	.	8B-/J	8b-\J
=29	=29	=29	=29	=29
4r	4r	4E-\	8B-/L	8b-\L
.	.	.	8g/	8gg\
4G/	4e-\	4G\	8f/	8ff\
.	.	.	8e-/	8ee-\
4G/	4e-\	4E-\	8d/	8dd\
.	.	.	8e-/J	8ee-\J
=30	=30	=30	=30	=30
4r	4r	4F\	8B-/L	8b-\L
.	.	.	8a-/	8aa-\
4B-/	4f\	4D\	8g/	8gg\
.	.	.	8f/	8ff\
4B-/	4f\	4BB-/	8eX/	8eeX\
.	.	.	8f/J	8ff\J
!	!	!	!LO:LB:g=original	!
=31	=31	=31	=31	=31
4G/	4e-\	4E-\	8g\L	8gg\L
.	.	.	8b-\	8bb-\
4r	4r	4G\	8g\	8aa-\
.	.	.	8e-\	8gg\
4B-/	4f\	4B-\	8f\	8ff\
.	.	.	8g\J	8eeX\J
=32	=32	=32	=32	=32
!LO:TX:b:t=fin	!LO:TX:b:t=16	!	!	!
2G;/	2e-\	4e-\	4f/	4ff\
!	!	!	!	!LO:TX:b:t=8
!	!	!LO:TX:a:t=fin	!LO:TX:b:t=finis	!LO:TX:b:t=fin
.	.	4E-;\	4e-;/	4ee-;\
!	!	!	!	!LO:LB:g=original
=:|!|:	=:|!|:	=:|!|:	=:|!|:	=:|!|:
*>D	*>D	*>D	*>D	*>D
4r	4r	4r	4b-\	4b-\
!	!	!LO:LB:g=original	!	!
=33	=33	=33	=33	=33
4r	4r	4E-\	8b-\L	8b-\L
.	.	.	8gg\	8bb-\
4G/	4e-\	4G\	8ff\	8aa-\
.	.	.	8ee-\	8gg\
4G/	4e-\	4E-\	8dd\	8ff\
.	.	.	8ee-\J	8gg\J
=34	=34	=34	=34	=34
4r	4r	4F\	8ff\L	8aa-\L
.	.	.	8gg\	8bb-\
4B-/	4f\	4D\	8ff\	8aa-\
.	.	.	8ee-\J	8gg\J
4B-/	4f\	4BB-/	4dd\	4ff\
!	!LO:LB:g=original	!	!	!
=35	=35	=35	=35	=35
4f\	2f\	4E-\	8ee-\L	8gg\L
.	.	.	8dd\	8ff\
4r	.	4C/	8cc\	8ee-\
.	.	.	8dd\	8ff\
4f\	4f\	4AAn/	8ee-\	8gg\
.	.	.	8ff\J	8aa-\J
!LO:LB:g=original	!	!	!	!
=36	=36	=36	=36	=36
2B-/	2f\	4BB-/	4ee-\	4gg\
!	!	!	!	!LO:TX:b:t=4
!LO:TX:b:t=Da \nCapo	!	!LO:TX:b:t=Da Capo\nM&colon; Da Capo	!LO:TX:b:t=Da\nCapo	!LO:TX:b:t=Da\nCapo
.	.	4BBB-/	4dd\	4ff\
!	!	!	!LO:LB:g=original	!LO:LB:g=original
=||	=||	=||	=||	=||
4ryy	4r	4ryy	4B-/yy	4b-\yy
=37	=37	=37	=37	=37
4ryy	4r	4E-\yy	8B-/Lyy	8b-\Lyy
.	.	.	8g/yy	8gg\yy
4G/yy	4e-\	4G\yy	8f/yy	(y8ff\yy
.	.	.	8e-/yy	8ee-\yy
4G/yy	4e-\	4E-\yy	8d/yy	8dd\yy
.	.	.	8e-/Jyy	8ee-\J)yy
=38	=38	=38	=38	=38
4ryy	4r	4F\yy	8B-/Lyy	8b-\Lyy
.	.	.	8a-/yy	8aa-\yy
4B-/yy	4f\	4D\yy	8g/yy	(y8gg\yy
.	.	.	8f/yy	8ff\yy
4B-/yy	4f\	4BB-/yy	8eX/yy	8eeX\yy
.	.	.	8f/Jyy	8ff\J)yy
=39	=39	=39	=39	=39
!	!	!	!LO:TX:t=P:problem:mixed beam	!
4ryy	4r	4E-\yy	8B-/Lyy	8b-\Lyy
.	.	.	8b-\yy	8bb-\yy
4G/yy	4e-\	4G\yy	8a-\yy	(y8aa-\yy
.	.	.	8g\yy	8gg\yy
4G/yy	4e-\	4E-\yy	8f\yy	8ff\yy
.	.	.	8e-\Jyy	8ee-X\J)yy
!LO:LB:g=original	!	!	!	!LO:LB:g=original
=40	=40	=40	=40	=40
4B-/yy	4f\	4B-\yy	8g/Lyy	8gg\Lyy
.	.	.	8f/yy	8ff\yy
4B-/yy	4f\	4BB-/yy	8e-/yy	8ee-\yy
.	.	.	8d/yy	8dd\yy
4ryy	4r	4ryy	8c/yy	8cc\yy
.	.	.	8B-/Jyy	8b-\Jyy
=41	=41	=41	=41	=41
4ryy	4r	4E-\yy	8B-/Lyy	8b-\Lyy
.	.	.	8g/yy	8gg\yy
4G/yy	4e-\	4G\yy	8f/yy	8ff\yy
.	.	.	8e-/yy	8ee-\yy
4G/yy	4e-\	4E-\yy	8d/yy	8dd\yy
.	.	.	8e-/Jyy	8ee-\Jyy
=42	=42	=42	=42	=42
4ryy	4r	4F\yy	8B-/Lyy	8b-\Lyy
.	.	.	8a-/yy	8aa-\yy
4B-/yy	4f\	4D\yy	8g/yy	8gg\yy
.	.	.	8f/yy	8ff\yy
4B-/yy	4f\	4BB-/yy	8eX/yy	8eeX\yy
.	.	.	8f/Jyy	8ff\Jyy
!	!LO:LB:g=original	!	!LO:LB:g=original	!
=43	=43	=43	=43	=43
4G/yy	4e-\	4E-\yy	8g\Lyy	8gg\Lyy
.	.	.	8b-\yy	8bb-\yy
4ryy	4r	4G\yy	8g\yy	8aa-\yy
.	.	.	8e-\yy	8gg\yy
4B-/yy	4f\	4B-\yy	8f\yy	8ff\yy
.	.	.	8g\Jyy	8eeX\Jyy
=44	=44	=44	=44	=44
!LO:TX:b:t=fin	!	!	!	!
2G;/yy	2e-\	4e-\yy	4f/yy	4ff\yy
!	!	!	!	!LO:TX:b:t=8
!	!	!LO:TX:a:t=fin	!LO:TX:b:t=finis	!LO:TX:b:t=fin
.	.	4E-;\yy	4e-;/yy	4ee-;\yy
==	==	==	==	==
*-	*-	*-	*-	*-
!!!system-decoration: [(s1,s2,s3)][(s4,s5)]
!!!ENC: Krzysztof Stępień
!!!END: 2021-06-16
!!!ENC: Marta Lawrence
!!!END: 2021-06-20
